!!!OTL: Osterlied des 15. Jahrhunderts
!!!ARE: Europa, Mitteleuropa, Deutschland
!!!SCT: A0561B
!!!YEM: Copyright 1995, estate of Helmut Schaffrath.
**kern
*ICvox
*Ivox
*M4/1
*k[]
*C:
{2g
=1
1g
1g
1g
1b-
=2
1a
1g
1f
2r}
{2g
=3
1e
1c
1e
1f
=4
1g
1a
1g
2r}
{2g
=5
1g
1g
1g
1b-
=6
1a
1g
1f
2r}
{2g
=7
1e
1c
1e
1f
=8
1g
1a
1g
1r}
=9
{1cc
1b
1a
1b
=10
1cc
1a
1g
2r}
{2g
=11
1cc
1f
1g
1c
=12
2e
2a
2g
2f
1e
2r}
{2c
=13
2d
2e
2f
2g
1e
1d
=14
1A
1B
1.c}
==
!!!AGN: Romanze, Ballade, Lied, religioeses Lied
!! Muenchner Gsgb. 1586. Verbreitetste Lesart.
!!!ONB: ESAC (Essen Associative Code) Database: ALTDEU
!!!AMT: simple quadruple
!!!AIN: vox
!!!EED: Helmut Schaffrath
!!!EEV: 1.0
*-
